X: 11173
T: Duncormick Mummer's
R: jig
M: 6/8
K: Dmajor
M:12/8
|:D3 EFG A2d d2z|=c2B A2B c2A GFE|
D3 EFG A2d d2f|e2d Bcd e2 dd3:|
!trill!f2d dcd !trill!f2d dcd|e2=c cBce2f g2e|
!trill!f2d dcd !trill!f2d dcd|e2d c2d e2 d d2g|
!trill!f2d dcd !trill!f2d dcd|e2=c cBc e2f g2z|
agf gfe f2d dcd|A3 Bcd e2d d3||

